X: 071
T: The Gordons o' Gight 1479-1787
N: Near Fyvie, Aberdeenshire
C: Bert Murray
R: reel
B: Bert Murray's "Bon Accord Collection" 1999 p.7
%
Z: 2011 John Chambers <jc:trillian.mit.edu>
M: 4/4
L: 1/8
K: Em
uB |\
e2(eB) GEEG | FDFA dAFA | e2(eB) GEEG | FDAF GEEB |
efgf eBB^c | dBAd FDDF | EFGA Bee^c dBAF E3 ||
uf |\
g>e ee/e/ (b>e) ee/e/ | fedf afdf | g>e ee/e/ (b>e) ee/e/ | (fe)df geef |
gfed eBB^c | dBAG FDDF | EFGA Bee^c dBAF E3 |]

%%sep 2 1 500

